X:463
T:Lorny?Mr. Wotten. RH.463
R:air
S:Rev.R.Harrison’s MS,c1815,Cumbria
O:England
A:Temple Sowerby,Cumbria
Z:vmp.Simon Wilson. Review PJH, 2008.
M:6/8
L:1/8
Q:3/8=80
K:D
d3 f2z|ede fd>B|A>Bc d2b|a>gf e2d|!
d3 f2z|ede fd>B|A>Bc d2b|a>gf e2d||!
f>ga a>bc’|bgb afd|f>ga a>bc’|b>c’a d’2z|!
d>ef d’c’b|aa/g/g/f/ fed|dAd dAd|dgf edc|]

